bicons/scalable/categories/user-project.svg

<?xml version="1.0" encoding="UTF-8" standalone="no"?>
<!-- Created with Inkscape (http://www.inkscape.org/) -->

<svg
   xmlns:dc="http://purl.org/dc/elements/1.1/"
   xmlns:cc="http://creativecommons.org/ns#"
   xmlns:rdf="http://www.w3.org/1999/02/22-rdf-syntax-ns#"
   xmlns:svg="http://www.w3.org/2000/svg"
   xmlns="http://www.w3.org/2000/svg"
   xmlns:xlink="http://www.w3.org/1999/xlink"
   xmlns:sodipodi="http://sodipodi.sourceforge.net/DTD/sodipodi-0.dtd"
   xmlns:inkscape="http://www.inkscape.org/namespaces/inkscape"
   width="210mm"
   height="297mm"
   viewBox="0 0 744.09448819 1052.3622047"
   id="svg2"
   version="1.1"
   inkscape:version="0.91 r13725"
   sodipodi:docname="user-project.svg"
   inkscape:export-filename="C:\Users\johannes\Documents\Arbeit\RRZE\bi-con\bi-con\scalable\documents\document.png"
   inkscape:export-xdpi="4"
   inkscape:export-ydpi="4">
  <defs
     id="defs4">
    <linearGradient
       inkscape:collect="always"
       id="linearGradient4254">
      <stop
         style="stop-color:#9397a2;stop-opacity:1"
         offset="0"
         id="stop4256" />
      <stop
         style="stop-color:#5a6578;stop-opacity:1"
         offset="1"
         id="stop4258" />
    </linearGradient>
    <linearGradient
       id="linearGradient2224">
      <stop
         id="stop2226"
         offset="0"
         style="stop-color:#7c7c7c;stop-opacity:1;" />
      <stop
         id="stop2228"
         offset="1"
         style="stop-color:#b8b8b8;stop-opacity:1;" />
    </linearGradient>
    <linearGradient
       id="linearGradient15218">
      <stop
         id="stop15220"
         offset="0"
         style="stop-color:#eeeeef;stop-opacity:1;" />
      <stop
         id="stop2736"
         offset="0.59928656"
         style="stop-color:#d3d7cf;stop-opacity:1;" />
      <stop
         id="stop2738"
         offset="0.82758623"
         style="stop-color:#ffffff;stop-opacity:1;" />
      <stop
         id="stop15222"
         offset="1"
         style="stop-color:#d3d7cf;stop-opacity:1;" />
    </linearGradient>
    <pattern
       y="0"
       x="0"
       height="6"
       width="6"
       patternUnits="userSpaceOnUse"
       id="EMFhbasepattern" />
    <pattern
       y="0"
       x="0"
       height="6"
       width="6"
       patternUnits="userSpaceOnUse"
       id="EMFhbasepattern-5" />
    <linearGradient
       inkscape:collect="always"
       xlink:href="#linearGradient4254"
       id="linearGradient4260"
       x1="380.01031"
       y1="330.40619"
       x2="414.6156"
       y2="457.18103"
       gradientUnits="userSpaceOnUse"
       gradientTransform="translate(0.37005758,-0.39466108)" />
    <linearGradient
       inkscape:collect="always"
       xlink:href="#linearGradient4254"
       id="linearGradient4268"
       x1="358.43118"
       y1="465.73074"
       x2="429.96555"
       y2="644.62878"
       gradientUnits="userSpaceOnUse" />
  </defs>
  <sodipodi:namedview
     id="base"
     pagecolor="#ffffff"
     bordercolor="#666666"
     borderopacity="1.0"
     inkscape:pageopacity="0.0"
     inkscape:pageshadow="2"
     inkscape:zoom="0.70710678"
     inkscape:cx="409.31841"
     inkscape:cy="571.67703"
     inkscape:document-units="px"
     inkscape:current-layer="layer1"
     showgrid="false"
     showguides="true"
     inkscape:guide-bbox="true"
     inkscape:window-width="1366"
     inkscape:window-height="721"
     inkscape:window-x="-4"
     inkscape:window-y="-4"
     inkscape:window-maximized="1">
    <sodipodi:guide
       position="315.53572,730.17859"
       orientation="0,1"
       id="guide3338" />
    <sodipodi:guide
       position="351.25,330.17858"
       orientation="0,1"
       id="guide3340" />
    <sodipodi:guide
       position="189.10714,408.8393"
       orientation="1,0"
       id="guide3344" />
    <sodipodi:guide
       position="589.04521,468.07945"
       orientation="1,0"
       id="guide3346" />
    <inkscape:grid
       type="xygrid"
       id="grid3440" />
    <sodipodi:guide
       position="0,0"
       orientation="0,1"
       id="guide3405" />
    <sodipodi:guide
       position="214.125,684.50002"
       orientation="1,0"
       id="guide3407" />
    <sodipodi:guide
       position="0,0"
       orientation="0,1"
       id="guide3409" />
    <sodipodi:guide
       position="589.04521,378.30213"
       orientation="1,0"
       id="guide3411" />
    <sodipodi:guide
       position="564.00001,683.37502"
       orientation="1,0"
       id="guide3413" />
    <sodipodi:guide
       position="0,0"
       orientation="0,1"
       id="guide4168" />
  </sodipodi:namedview>
  <metadata
     id="metadata7">
    <rdf:RDF>
      <cc:Work
         rdf:about="">
        <dc:format>image/svg+xml</dc:format>
        <dc:type
           rdf:resource="http://purl.org/dc/dcmitype/StillImage" />
        <dc:title />
      </cc:Work>
    </rdf:RDF>
  </metadata>
  <g
     inkscape:label="Ebene 1"
     inkscape:groupmode="layer"
     id="layer1">
    <flowRoot
       xml:space="preserve"
       id="flowRoot4169"
       style="font-style:normal;font-weight:normal;font-size:40px;line-height:125%;font-family:sans-serif;letter-spacing:0px;word-spacing:0px;fill:#000000;fill-opacity:1;stroke:none;stroke-width:1px;stroke-linecap:butt;stroke-linejoin:miter;stroke-opacity:1"><flowRegion
         id="flowRegion4171"><rect
           id="rect4173"
           width="56.433445"
           height="88.78862"
           x="89.541069"
           y="427.07962" /></flowRegion><flowPara
         id="flowPara4175" /></flowRoot>    <rect
       style="fill:none;fill-rule:evenodd;stroke:none;stroke-width:1px;stroke-linecap:butt;stroke-linejoin:miter;stroke-opacity:1"
       id="rect3336"
       width="400"
       height="400"
       x="189.14485"
       y="322.27005"
       inkscape:export-xdpi="4.9499998"
       inkscape:export-ydpi="4.9499998" />
    <g
       id="g4289"
       transform="matrix(1.1386133,0,0,1.1386133,-55.916552,-53.501199)">
      <path
         sodipodi:nodetypes="cccsccccccscsc"
         inkscape:connector-curvature="0"
         id="path2176"
         d="m 354.64258,460.41602 c -0.11745,0.1039 -0.22449,0.21556 -0.3457,0.3164 l -6.54297,3.54492 c -42.67576,25.28071 -72.76172,86.25893 -72.76172,157.46875 0,15.29493 1.39507,30.1142 3.99804,44.21289 3.86098,8.63739 13.56182,14.96807 25.18555,15.79493 l 0,0.0957 172.76172,0 0,-0.008 c 13.04649,-0.18416 24.03463,-7.28341 27.72656,-17.01563 2.4704,-13.75919 3.79102,-28.19351 3.79102,-43.08008 0,-74.54936 -32.9771,-137.88441 -78.85156,-160.78515 -10.95259,6.14942 -23.5778,9.67773 -37.00391,9.67773 -13.81748,10e-6 -26.78697,-3.73654 -37.95703,-10.22265 z"
         style="fill:url(#linearGradient4268);fill-opacity:1;stroke:none;stroke-width:41.15159225;stroke-linecap:round;stroke-linejoin:round;stroke-opacity:1" />
      <ellipse
         ry="65.293182"
         rx="65.647316"
         cx="392.98022"
         cy="395.83826"
         id="circle2187-6"
         style="fill:url(#linearGradient4260);fill-opacity:1;stroke:none;stroke-width:14;stroke-miterlimit:4;stroke-dasharray:none;stroke-opacity:1" />
    </g>
    <g
       id="g4202">
      <path
         id="rect4169-1"
         d="m 380.45518,513.21301 c -2.19623,0 -3.96506,1.76884 -3.96506,3.96506 l 0,7.92807 c 0,2.19624 1.76883,3.96506 3.96506,3.96506 l 1.98151,0 0,98.50437 c 0,5.49063 9.91162,9.91164 9.91162,9.91164 l 48.62181,0 -20.50087,35.50691 c -3.10022,5.36975 -1.27327,12.18919 4.09647,15.28941 l 1.55646,0.89732 c 5.36976,3.10023 12.18919,1.27327 15.28941,-4.09647 l 22.87868,-39.6301 0,33.45355 c 0,6.20046 4.99042,11.19088 11.19088,11.19088 l 1.7967,0 c 6.20045,0 11.19293,-4.99042 11.19293,-11.19088 l 0,-35.07981 23.60557,40.88469 c 3.10023,5.36976 9.91966,7.19671 15.2894,4.09649 l 1.55441,-0.89733 c 5.36976,-3.10023 7.19671,-9.91966 4.09647,-15.28941 l -20.28526,-35.13525 48.10025,0 c 0,0 9.91163,-4.42101 9.91163,-9.91164 l 0,-98.50437 1.98151,0 c 2.19622,0 3.96505,-1.76882 3.96505,-3.96506 l 0,-7.92807 c 0,-2.19622 -1.76883,-3.96506 -3.96505,-3.96506 l -192.26958,0 z"
         style="opacity:1;fill:#abbe24;fill-opacity:1;stroke:#ffffff;stroke-width:30;stroke-linecap:round;stroke-linejoin:round;stroke-miterlimit:4;stroke-dasharray:none;stroke-opacity:1"
         inkscape:connector-curvature="0" />
      <g
         transform="matrix(1.0513266,0,0,1.0513266,-18.514547,-60.614915)"
         id="g4174">
        <path
           style="opacity:1;fill:#abbe24;fill-opacity:1;stroke:none;stroke-width:16;stroke-linecap:round;stroke-linejoin:round;stroke-miterlimit:4;stroke-dasharray:none;stroke-opacity:1"
           d="m 379.3457,546.36133 c -2.08901,0 -3.77148,1.68248 -3.77148,3.77148 l 0,7.54102 c 0,2.08902 1.68247,3.77148 3.77148,3.77148 l 1.88477,0 0,93.69531 c 0,5.22257 9.42773,9.42774 9.42773,9.42774 l 46.24805,0 -19.5,33.77344 c -2.94887,5.10759 -1.21111,11.5941 3.89648,14.54297 l 1.48047,0.85351 c 5.1076,2.94887 11.5941,1.21111 14.54297,-3.89648 l 21.76172,-37.69532 0,31.82032 c 0,5.89775 4.74679,10.64453 10.64453,10.64453 l 1.70899,0 c 5.89774,0 10.64648,-4.74678 10.64648,-10.64453 l 0,-33.36719 22.45313,38.88867 c 2.94887,5.1076 9.43537,6.84536 14.54296,3.89649 l 1.47852,-0.85352 c 5.1076,-2.94887 6.84536,-9.43537 3.89648,-14.54297 l -19.29492,-33.41992 45.75196,0 c 0,0 9.42773,-4.20517 9.42773,-9.42774 l 0,-93.69531 1.88477,0 c 2.089,0 3.77148,-1.68246 3.77148,-3.77148 l 0,-7.54102 c 0,-2.089 -1.68248,-3.77148 -3.77148,-3.77148 l -182.88282,0 z"
           id="rect4169"
           inkscape:connector-curvature="0" />
        <rect
           style="opacity:1;fill:#ffffff;fill-opacity:1;stroke:none;stroke-width:16;stroke-linecap:round;stroke-linejoin:round;stroke-miterlimit:4;stroke-dasharray:none;stroke-opacity:1"
           id="rect4174"
           width="147.96751"
           height="14.127001"
           x="390.65778"
           y="565.44623"
           ry="5.6507716" />
        <rect
           style="opacity:1;fill:#ffffff;fill-opacity:1;stroke:none;stroke-width:16;stroke-linecap:round;stroke-linejoin:round;stroke-miterlimit:4;stroke-dasharray:none;stroke-opacity:1"
           id="rect4176"
           width="152.17516"
           height="14.127001"
           x="390.65778"
           y="593.70026"
           ry="5.6507716" />
        <rect
           style="opacity:1;fill:#ffffff;fill-opacity:1;stroke:none;stroke-width:16;stroke-linecap:round;stroke-linejoin:round;stroke-miterlimit:4;stroke-dasharray:none;stroke-opacity:1"
           id="rect4178"
           width="103.45478"
           height="14.127001"
           x="390.65778"
           y="621.95422"
           ry="5.6507716" />
      </g>
    </g>
  </g>
</svg>

<?xml version="1.0" encoding="UTF-8" standalone="no"?>
<!-- Created with Inkscape (http://www.inkscape.org/) -->

<svg
   xmlns:dc="http://purl.org/dc/elements/1.1/"
   xmlns:cc="http://creativecommons.org/ns#"
   xmlns:rdf="http://www.w3.org/1999/02/22-rdf-syntax-ns#"
   xmlns:svg="http://www.w3.org/2000/svg"
   xmlns="http://www.w3.org/2000/svg"
   xmlns:xlink="http://www.w3.org/1999/xlink"
   xmlns:sodipodi="http://sodipodi.sourceforge.net/DTD/sodipodi-0.dtd"
   xmlns:inkscape="http://www.inkscape.org/namespaces/inkscape"
   width="210mm"
   height="297mm"
   viewBox="0 0 744.09448819 1052.3622047"
   id="svg2"
   version="1.1"
   inkscape:version="0.91 r13725"
   sodipodi:docname="user-project.svg"
   inkscape:export-filename="C:\Users\johannes\Documents\Arbeit\RRZE\bi-con\bi-con\scalable\documents\document.png"
   inkscape:export-xdpi="4"
   inkscape:export-ydpi="4">
  <defs
     id="defs4">
    <linearGradient
       inkscape:collect="always"
       id="linearGradient4254">
      <stop
         style="stop-color:#9397a2;stop-opacity:1"
         offset="0"
         id="stop4256" />
      <stop
         style="stop-color:#5a6578;stop-opacity:1"
         offset="1"
         id="stop4258" />
    </linearGradient>
    <linearGradient
       id="linearGradient2224">
      <stop
         id="stop2226"
         offset="0"
         style="stop-color:#7c7c7c;stop-opacity:1;" />
      <stop
         id="stop2228"
         offset="1"
         style="stop-color:#b8b8b8;stop-opacity:1;" />
    </linearGradient>
    <linearGradient
       id="linearGradient15218">
      <stop
         id="stop15220"
         offset="0"
         style="stop-color:#eeeeef;stop-opacity:1;" />
      <stop
         id="stop2736"
         offset="0.59928656"
         style="stop-color:#d3d7cf;stop-opacity:1;" />
      <stop
         id="stop2738"
         offset="0.82758623"
         style="stop-color:#ffffff;stop-opacity:1;" />
      <stop
         id="stop15222"
         offset="1"
         style="stop-color:#d3d7cf;stop-opacity:1;" />
    </linearGradient>
    <pattern
       y="0"
       x="0"
       height="6"
       width="6"
       patternUnits="userSpaceOnUse"
       id="EMFhbasepattern" />
    <pattern
       y="0"
       x="0"
       height="6"
       width="6"
       patternUnits="userSpaceOnUse"
       id="EMFhbasepattern-5" />
    <linearGradient
       inkscape:collect="always"
       xlink:href="#linearGradient4254"
       id="linearGradient4260"
       x1="380.01031"
       y1="330.40619"
       x2="414.6156"
       y2="457.18103"
       gradientUnits="userSpaceOnUse"
       gradientTransform="translate(0.37005758,-0.39466108)" />
    <linearGradient
       inkscape:collect="always"
       xlink:href="#linearGradient4254"
       id="linearGradient4268"
       x1="358.43118"
       y1="465.73074"
       x2="429.96555"
       y2="644.62878"
       gradientUnits="userSpaceOnUse" />
  </defs>
  <sodipodi:namedview
     id="base"
     pagecolor="#ffffff"
     bordercolor="#666666"
     borderopacity="1.0"
     inkscape:pageopacity="0.0"
     inkscape:pageshadow="2"
     inkscape:zoom="0.70710678"
     inkscape:cx="143.44626"
     inkscape:cy="574.50546"
     inkscape:document-units="px"
     inkscape:current-layer="layer1"
     showgrid="false"
     showguides="false"
     inkscape:guide-bbox="true"
     inkscape:window-width="1366"
     inkscape:window-height="721"
     inkscape:window-x="-4"
     inkscape:window-y="-4"
     inkscape:window-maximized="1">
    <sodipodi:guide
       position="315.53572,730.17859"
       orientation="0,1"
       id="guide3338" />
    <sodipodi:guide
       position="351.25,330.17858"
       orientation="0,1"
       id="guide3340" />
    <sodipodi:guide
       position="189.10714,408.8393"
       orientation="1,0"
       id="guide3344" />
    <sodipodi:guide
       position="589.04521,468.07945"
       orientation="1,0"
       id="guide3346" />
    <inkscape:grid
       type="xygrid"
       id="grid3440" />
    <sodipodi:guide
       position="0,0"
       orientation="0,1"
       id="guide3405" />
    <sodipodi:guide
       position="214.125,684.50002"
       orientation="1,0"
       id="guide3407" />
    <sodipodi:guide
       position="0,0"
       orientation="0,1"
       id="guide3409" />
    <sodipodi:guide
       position="589.04521,378.30213"
       orientation="1,0"
       id="guide3411" />
    <sodipodi:guide
       position="564.00001,683.37502"
       orientation="1,0"
       id="guide3413" />
    <sodipodi:guide
       position="0,0"
       orientation="0,1"
       id="guide4168" />
  </sodipodi:namedview>
  <metadata
     id="metadata7">
    <rdf:RDF>
      <cc:Work
         rdf:about="">
        <dc:format>image/svg+xml</dc:format>
        <dc:type
           rdf:resource="http://purl.org/dc/dcmitype/StillImage" />
        <dc:title />
      </cc:Work>
    </rdf:RDF>
  </metadata>
  <g
     inkscape:label="Ebene 1"
     inkscape:groupmode="layer"
     id="layer1">
    <g
       id="g4168"
       inkscape:export-filename="C:\Users\johannes\Documents\Arbeit\RRZE\bi-con\bi-con\test\g4168.png"
       inkscape:export-xdpi="7.1999998"
       inkscape:export-ydpi="7.1999998">
      <flowRoot
         style="fill:black;stroke:none;stroke-opacity:1;stroke-width:1px;stroke-linejoin:miter;stroke-linecap:butt;fill-opacity:1;font-family:sans-serif;font-style:normal;font-weight:normal;font-size:40px;line-height:125%;letter-spacing:0px;word-spacing:0px"
         id="flowRoot4169"
         xml:space="preserve"><flowRegion
           id="flowRegion4171"><rect
             y="427.07962"
             x="89.541069"
             height="88.78862"
             width="56.433445"
             id="rect4173" /></flowRegion><flowPara
           id="flowPara4175" /></flowRoot>      <g
         id="g4293">
        <rect
           style="fill:none;fill-rule:evenodd;stroke:none;stroke-width:1px;stroke-linecap:butt;stroke-linejoin:miter;stroke-opacity:1"
           id="rect3336"
           width="400"
           height="400"
           x="189.14485"
           y="322.27005"
           inkscape:export-xdpi="4.9499998"
           inkscape:export-ydpi="4.9499998" />
        <g
           id="g4289">
          <path
             sodipodi:nodetypes="cccsccccccscsc"
             inkscape:connector-curvature="0"
             id="path2176"
             d="m 354.64258,460.41602 c -0.11745,0.1039 -0.22449,0.21556 -0.3457,0.3164 l -6.54297,3.54492 c -42.67576,25.28071 -72.76172,86.25893 -72.76172,157.46875 0,15.29493 1.39507,30.1142 3.99804,44.21289 3.86098,8.63739 13.56182,14.96807 25.18555,15.79493 l 0,0.0957 172.76172,0 0,-0.008 c 13.04649,-0.18416 24.03463,-7.28341 27.72656,-17.01563 2.4704,-13.75919 3.79102,-28.19351 3.79102,-43.08008 0,-74.54936 -32.9771,-137.88441 -78.85156,-160.78515 -10.95259,6.14942 -23.5778,9.67773 -37.00391,9.67773 -13.81748,10e-6 -26.78697,-3.73654 -37.95703,-10.22265 z"
             style="fill:url(#linearGradient4268);fill-opacity:1;stroke:none;stroke-width:41.15159225;stroke-linecap:round;stroke-linejoin:round;stroke-opacity:1" />
          <ellipse
             ry="65.293182"
             rx="65.647316"
             cx="392.98022"
             cy="395.83826"
             id="circle2187-6"
             style="fill:url(#linearGradient4260);fill-opacity:1;stroke:none;stroke-width:14;stroke-miterlimit:4;stroke-dasharray:none;stroke-opacity:1" />
        </g>
      </g>
    </g>
    <path
       inkscape:connector-curvature="0"
       style="opacity:1;fill:#abbe24;fill-opacity:1;stroke:#ffffff;stroke-width:30;stroke-linecap:round;stroke-linejoin:round;stroke-miterlimit:4;stroke-dasharray:none;stroke-opacity:1"
       d="m 379.49171,545.81319 c -2.08901,0 -3.77148,1.68248 -3.77148,3.77148 l 0,7.54102 c 0,2.08902 1.68247,3.77148 3.77148,3.77148 l 1.88477,0 0,93.69531 c 0,5.22257 9.42773,9.42774 9.42773,9.42774 l 46.24805,0 -19.5,33.77344 c -2.94887,5.10759 -1.21111,11.5941 3.89648,14.54297 l 1.48047,0.85351 c 5.1076,2.94887 11.5941,1.21111 14.54297,-3.89648 l 21.76172,-37.69532 0,31.82032 c 0,5.89775 4.74679,10.64453 10.64453,10.64453 l 1.70899,0 c 5.89774,0 10.64648,-4.74678 10.64648,-10.64453 l 0,-33.36719 22.45313,38.88867 c 2.94887,5.1076 9.43537,6.84536 14.54296,3.89649 l 1.47852,-0.85352 c 5.1076,-2.94887 6.84536,-9.43537 3.89648,-14.54297 l -19.29492,-33.41992 45.75196,0 c 0,0 9.42773,-4.20517 9.42773,-9.42774 l 0,-93.69531 1.88477,0 c 2.089,0 3.77148,-1.68246 3.77148,-3.77148 l 0,-7.54102 c 0,-2.089 -1.68248,-3.77148 -3.77148,-3.77148 l -182.88282,0 z"
       id="rect4169-1" />
    <g
       id="g4174">
      <path
         id="rect4169"
         d="M 379.3457 546.36133 C 377.25669 546.36133 375.57422 548.04381 375.57422 550.13281 L 375.57422 557.67383 C 375.57422 559.76285 377.25669 561.44531 379.3457 561.44531 L 381.23047 561.44531 L 381.23047 655.14062 C 381.23047 660.36319 390.6582 664.56836 390.6582 664.56836 L 436.90625 664.56836 L 417.40625 698.3418 C 414.45738 703.44939 416.19514 709.9359 421.30273 712.88477 L 422.7832 713.73828 C 427.8908 716.68715 434.3773 714.94939 437.32617 709.8418 L 459.08789 672.14648 L 459.08789 703.9668 C 459.08789 709.86455 463.83468 714.61133 469.73242 714.61133 L 471.44141 714.61133 C 477.33915 714.61133 482.08789 709.86455 482.08789 703.9668 L 482.08789 670.59961 L 504.54102 709.48828 C 507.48989 714.59588 513.97639 716.33364 519.08398 713.38477 L 520.5625 712.53125 C 525.6701 709.58238 527.40786 703.09588 524.45898 697.98828 L 505.16406 664.56836 L 550.91602 664.56836 C 550.91602 664.56836 560.34375 660.36319 560.34375 655.14062 L 560.34375 561.44531 L 562.22852 561.44531 C 564.31752 561.44531 566 559.76285 566 557.67383 L 566 550.13281 C 566 548.04381 564.31752 546.36133 562.22852 546.36133 L 379.3457 546.36133 z "
         style="opacity:1;fill:#abbe24;fill-opacity:1;stroke:none;stroke-width:16;stroke-linecap:round;stroke-linejoin:round;stroke-miterlimit:4;stroke-dasharray:none;stroke-opacity:1" />
      <rect
         ry="5.6507716"
         y="565.44623"
         x="390.65778"
         height="14.127001"
         width="147.96751"
         id="rect4174"
         style="opacity:1;fill:#ffffff;fill-opacity:1;stroke:none;stroke-width:16;stroke-linecap:round;stroke-linejoin:round;stroke-miterlimit:4;stroke-dasharray:none;stroke-opacity:1" />
      <rect
         ry="5.6507716"
         y="593.70026"
         x="390.65778"
         height="14.127001"
         width="152.17516"
         id="rect4176"
         style="opacity:1;fill:#ffffff;fill-opacity:1;stroke:none;stroke-width:16;stroke-linecap:round;stroke-linejoin:round;stroke-miterlimit:4;stroke-dasharray:none;stroke-opacity:1" />
      <rect
         ry="5.6507716"
         y="621.95422"
         x="390.65778"
         height="14.127001"
         width="103.45478"
         id="rect4178"
         style="opacity:1;fill:#ffffff;fill-opacity:1;stroke:none;stroke-width:16;stroke-linecap:round;stroke-linejoin:round;stroke-miterlimit:4;stroke-dasharray:none;stroke-opacity:1" />
    </g>
  </g>
</svg>
